src/basic/100/u25A4-rows.svg

<svg width="92" height="128" viewBox="0 0 92 128" fill="none" xmlns="http://www.w3.org/2000/svg">
<path fill-rule="evenodd" clip-rule="evenodd" d="M92 80.5L92 80L91.5 80L0.500178 80L0.000177686 80L0.000177664 80.5L0.000176396 109.5L0.000176374 110L0.500176 110L91.5 110L92 110L92 109.5L92 80.5ZM1.00018 81L91 81L91 109L1.00018 109L1.00018 81ZM92 18L92 18.5L92 47.5005L92 48.0005L91.5 48.0005L0.500179 48.0005L0.000179084 48.0005L0.000179106 47.5005L0.000180374 18.5L0.000180396 18L0.50018 18L91.5 18L92 18ZM91 19L1.00018 19L1.00018 47.0005L91 47.0005L91 19ZM92 49L92 49.5L92 78.5005L92 79.0005L91.5 79.0005L0.500178 79.0005L0.000177729 79.0005L0.000177751 78.5005L0.000179019 49.5L0.000179041 49L0.500179 49L91.5 49L92 49ZM91 50L1.00018 50L1.00018 78.0005L91 78.0005L91 50Z" fill="black"/>
</svg>

<svg width="92" height="128" viewBox="0 0 92 128" fill="none" xmlns="http://www.w3.org/2000/svg">
<path fill-rule="evenodd" clip-rule="evenodd" d="M92,109.5v0.5h-0.5h-90.99982h-0.5v-0.5v-29v-0.5h0.5h90.99982h0.5v0.5zM1.00018,109h89.99982v-28h-89.99982zM92,18v0.5v29.0005v0.5h-0.5h-90.99982h-0.5v-0.5v-29.0005v-0.5h0.5h90.99982zM91,19h-89.99982v28.0005h89.99982zM92,49v0.5v29.0005v0.5h-0.5h-90.99982h-0.5v-0.5v-29.0005v-0.5h0.5h90.99982zM91,50h-89.99982v28.0005h89.99982z" fill="black"/>
</svg>
